!!!ONR: No. 46
!! From Harold Courlander, "Haiti Singing"
!! Chapel Hill: University of North Carolina Press, 1939
!! Copyright University of North Carolina Press
!!!ENC: D. Huron
**kern
*clefG2
*k[f#]
*M2/4
=1-
4r
8r
8dd
=
8dd
8dd
8dd
8b
=
4.dd
8a
=
8b
8a
8d
8f#
=
8a
4a
8dd
=
8ff#
8ee
8ff#
8ee
=
4.dd
8ee
=
8dd
8dd
8a
8b
=
4dd
8.dd
16a
=
8b
8a
8b
8a
=
[4b
8.b]
16a
=
8b
8a
8d
8f#
=
4a
8.a
16a
=
8b
8a
8b
8a
=
4.b
8ff#
=
8ff#
8ee
8ff#
8ee
=
4ff#
8.ff#
16b
=
8dd
8ff#
8ee
8ee
=
8dd
4dd
8ee
=
8dd
8dd
8a
8b
=
4dd
4dd
==
*-
